X:129
T: Richmudis von Adocht
N: Q1112D
O: Mitteleuropa, Deutschland / Frankreich, Lothringen, Kr. Forbach,
N: Melodievergleich zu Q0112A, anderes Lied.
R: ???
M: 6/8
L: 1/16
K: G
D2 | G2G2G2A2A2d2 | c2c2B2A4
DD | G2G2A2d2c2A2 | B6-B4
D2 | G2G2G2A4d2 | c3cB2A4
BA | G2G2G2A4d2 | c3cB2A4
D2 | G2GGdcB2B2A2 | G6-G4

@@@ Tune index: 1422
